client/src/assets/link-solid.svg

<svg aria-hidden="true" focusable="false" data-prefix="fas" data-icon="link" class="svg-inline--fa fa-link fa-w-16" role="img" xmlns="http://www.w3.org/2000/svg" viewBox="0 0 512 512"><path fill="currentColor" d="M326.612 185.391c59.747 59.809 58.927 155.698.36 214.59-.11.12-.24.25-.36.37l-67.2 67.2c-59.27 59.27-155.699 59.262-214.96 0-59.27-59.26-59.27-155.7 0-214.96l37.106-37.106c9.84-9.84 26.786-3.3 27.294 10.606.648 17.722 3.826 35.527 9.69 52.721 1.986 5.822.567 12.262-3.783 16.612l-13.087 13.087c-28.026 28.026-28.905 73.66-1.155 101.96 28.024 28.579 74.086 28.749 102.325.51l67.2-67.19c28.191-28.191 28.073-73.757 0-101.83-3.701-3.694-7.429-6.564-10.341-8.569a16.037 16.037 0 0 1-6.947-12.606c-.396-10.567 3.348-21.456 11.698-29.806l21.054-21.055c5.521-5.521 14.182-6.199 20.584-1.731a152.482 152.482 0 0 1 20.522 17.197zM467.547 44.449c-59.261-59.262-155.69-59.27-214.96 0l-67.2 67.2c-.12.12-.25.25-.36.37-58.566 58.892-59.387 154.781.36 214.59a152.454 152.454 0 0 0 20.521 17.196c6.402 4.468 15.064 3.789 20.584-1.731l21.054-21.055c8.35-8.35 12.094-19.239 11.698-29.806a16.037 16.037 0 0 0-6.947-12.606c-2.912-2.005-6.64-4.875-10.341-8.569-28.073-28.073-28.191-73.639 0-101.83l67.2-67.19c28.239-28.239 74.3-28.069 102.325.51 27.75 28.3 26.872 73.934-1.155 101.96l-13.087 13.087c-4.35 4.35-5.769 10.79-3.783 16.612 5.864 17.194 9.042 34.999 9.69 52.721.509 13.906 17.454 20.446 27.294 10.606l37.106-37.106c59.271-59.259 59.271-155.699.001-214.959z"></path></svg>

<?xml version="1.0" standalone="no"?>
<!DOCTYPE svg PUBLIC "-//W3C//DTD SVG 20010904//EN" "http://www.w3.org/TR/2001/REC-SVG-20010904/DTD/svg10.dtd">
<!-- Created using Krita: https://krita.org -->
<svg xmlns="http://www.w3.org/2000/svg" 
    xmlns:xlink="http://www.w3.org/1999/xlink"
    xmlns:krita="http://krita.org/namespaces/svg/krita"
    xmlns:sodipodi="http://sodipodi.sourceforge.net/DTD/sodipodi-0.dtd"
    width="122.88pt"
    height="122.88pt"
    viewBox="0 0 122.88 122.88">
<defs/>
<path id="shape0" transform="matrix(0.24 0 0 0.24 -0.000119999999994178 -0.000120012148618823)" fill="#b9bbbe" stroke-opacity="0" stroke="#000000" stroke-width="0" stroke-linecap="square" stroke-linejoin="bevel" d="M326.613 185.392C386.36 245.201 385.54 341.09 326.973 399.982C326.863 400.102 326.733 400.232 326.613 400.352L259.413 467.552C200.143 526.822 103.713 526.814 44.4525 467.552C-14.8175 408.292 -14.8175 311.852 44.4525 252.592L81.5585 215.486C91.3985 205.646 108.344 212.186 108.852 226.092C109.5 243.814 112.678 261.619 118.542 278.813C120.528 284.635 119.109 291.075 114.759 295.425L101.672 308.512C73.6465 336.538 72.7675 382.172 100.517 410.472C128.541 439.051 174.603 439.221 202.843 410.982L270.043 343.792C298.233 315.601 298.115 270.035 270.043 241.962C266.341 238.268 262.614 235.398 259.702 233.393C255.524 230.524 252.949 225.85 252.755 220.787C252.359 210.22 256.103 199.331 264.452 190.981L285.506 169.926C291.027 164.405 299.688 163.727 306.09 168.195C313.422 173.314 320.289 179.069 326.613 185.392ZM467.548 44.4495C408.286 -14.8125 311.858 -14.8205 252.588 44.4495L185.387 111.65C185.267 111.77 185.137 111.9 185.027 112.02C126.461 170.912 125.64 266.801 185.387 326.61C191.71 332.932 198.577 338.686 205.908 343.806C212.31 348.274 220.972 347.595 226.493 342.075L247.547 321.02C255.897 312.67 259.641 301.781 259.245 291.214C259.05 286.15 256.475 281.476 252.298 278.608C249.386 276.603 245.658 273.733 241.957 270.039C213.883 241.966 213.766 196.4 241.957 168.209L309.156 101.019C337.395 72.7795 383.457 72.9495 411.481 101.529C439.231 129.829 438.353 175.463 410.327 203.489L397.24 216.576C392.889 220.926 391.471 227.366 393.457 233.188C399.32 250.382 402.498 268.187 403.147 285.909C403.656 299.815 420.601 306.355 430.44 296.515L467.546 259.409C526.817 200.15 526.817 103.71 467.548 44.4495Z" sodipodi:nodetypes="cccccccccccccccccccccccccccccccccccccccccc"/>
</svg>
